gruvbox_icons/symbolic/devices/auth-sim-symbolic.svg

<?xml version="1.0" encoding="UTF-8"?>
<svg height="16px" viewBox="0 0 16 16" width="16px" xmlns="http://www.w3.org/2000/svg">
    <path d="m 4 0 c -2 0 -2 2 -2 2 v 12 c 0 2 2 2 2 2 h 8 s 2 0 2 -2 v -11 l -3 -3 z m 1 6 l 1 0.007812 v 2 h -2 v -1.007812 s 0 -1 1 -1 z m 6 0 c 1 0 1 1 1 1 l -0.003906 1 h -2 v -2 z m -4 0.007812 h 2 v 2 h -2 z m -3 2.996094 h 8 v 3.996094 c 0 1 -1 1 -1 1 l -1 -0.003906 v -2.996094 h -6 z m 6 2 h 2 v -0.003906 h -2 z m -6 1 h 2 v 2 l -1 -0.003906 c -1 0 -1 -1 -1 -1 z m 3 0 h 2 v 2 h -2 z m 0 0" fill="#2e3434"/>
</svg>

<svg xmlns="http://www.w3.org/2000/svg" width="16" height="16" version="1.1">
 <path style="fill:#cdd3e0" d="M 4,0 C 2,0 2,2 2,2 V 14 C 2,16 4,16 4,16 H 12 C 12,16 14,16 14,14 V 3 L 11,0 Z M 5,6 5.998,6.006 V 8.006 H 3.998 L 4,7 C 4,7 4,6 5,6 Z M 11,6 C 12,6 12,7 12,7 L 11.998,8.002 H 9.998 V 6.002 Z M 6.998,6.006 H 8.998 V 8.006 H 6.998 Z M 3.998,9.002 H 11.998 V 11 H 12 V 13 C 12,14 11,14 11,14 L 9.998,13.998 10,11.002 H 3.998 Z M 10,11.002 H 11.998 V 11 H 10 Z M 3.998,12.002 H 5.998 V 14.002 L 5,14 C 4,14 4,13 4,13 Z M 6.998,12.002 H 8.998 V 14.002 H 6.998 Z"/>
</svg>
